packages/Snapp/src/TrashIcon/index.svg

<?xml version="1.0" encoding="UTF-8"?>
<svg width="24px" height="24px" viewBox="0 0 24 24" version="1.1" xmlns="http://www.w3.org/2000/svg" xmlns:xlink="http://www.w3.org/1999/xlink">
    <title>Icons/24/Trash</title>
    <g id="Icons/24/Trash" stroke="none" stroke-width="1" fill="none" fill-rule="evenodd">
        <rect id="Container" fill-opacity="0" fill="#D8D8D8" fill-rule="nonzero" x="0" y="0" width="24" height="24"></rect>
        <path d="M7,6 L7,5 C7,3.34314575 8.34314575,2 10,2 L14,2 C15.6568542,2 17,3.34314575 17,5 L17,6 L20,6 C20.5522847,6 21,6.44771525 21,7 C21,7.55228475 20.5522847,8 20,8 L19,8 L19,19 C19,20.6568542 17.6568542,22 16,22 L8,22 C6.34314575,22 5,20.6568542 5,19 L5,8 L4,8 C3.44771525,8 3,7.55228475 3,7 C3,6.44771525 3.44771525,6 4,6 L7,6 Z M9,6 L15,6 L15,5 C15,4.44771525 14.5522847,4 14,4 L10,4 C9.44771525,4 9,4.44771525 9,5 L9,6 Z M17,8 L7,8 L7,19 C7,19.5522847 7.44771525,20 8,20 L16,20 C16.5522847,20 17,19.5522847 17,19 L17,8 Z M9,12 C9,11.4477153 9.44771525,11 10,11 C10.5522847,11 11,11.4477153 11,12 L11,17 C11,17.5522847 10.5522847,18 10,18 C9.44771525,18 9,17.5522847 9,17 L9,12 Z M13,12 C13,11.4477153 13.4477153,11 14,11 C14.5522847,11 15,11.4477153 15,12 L15,17 C15,17.5522847 14.5522847,18 14,18 C13.4477153,18 13,17.5522847 13,17 L13,12 Z" id="Shape" fill="#404040" fill-rule="nonzero"></path>
    </g>
</svg>

<svg viewBox="0 0 24 24" xmlns="http://www.w3.org/2000/svg" fill="currentColor" focusable="false">
  <path d="M7 6V5a3 3 0 013-3h4a3 3 0 013 3v1h3a1 1 0 010 2h-1v11a3 3 0 01-3 3H8a3 3 0 01-3-3V8H4a1 1 0 110-2h3zm2 0h6V5a1 1 0 00-1-1h-4a1 1 0 00-1 1v1zm8 2H7v11a1 1 0 001 1h8a1 1 0 001-1V8zm-8 4a1 1 0 012 0v5a1 1 0 01-2 0v-5zm4 0a1 1 0 012 0v5a1 1 0 01-2 0v-5z" fill="none"/>
</svg>
